public/images/blog.svg

<svg width="32.941" height="11.426" fill="none" xmlns="http://www.w3.org/2000/svg"><path d="M6.03 4.75q-.62-.25-1.36-.25H1.7V1.61h5.58V0H0v11.33h4.67q.74 0 1.36-.24.53-.22.93-.57.09-.07.16-.15.19-.18.33-.38.23-.32.38-.7.26-.64.26-1.38 0-.73-.26-1.36-.17-.46-.47-.82-.11-.14-.24-.27-.12-.13-.26-.24-.37-.29-.83-.47zm19.4 4.21q.3-.76.3-1.68 0-.91-.3-1.67-.24-.63-.66-1.12-.08-.09-.17-.18-.25-.26-.54-.47-.32-.23-.69-.39-.13-.06-.27-.11-.59-.2-1.24-.2t-1.23.2q-.14.05-.28.11-.33.14-.63.34-.33.23-.61.52l-.06.06q-.48.53-.76 1.24-.29.76-.29 1.67 0 .92.29 1.68.27.69.73 1.21.04.05.09.1.25.26.55.46.32.23.69.39.11.05.21.09.62.21 1.3.21.69 0 1.3-.21.11-.04.21-.09.41-.18.76-.43.25-.19.47-.42.11-.11.21-.23.39-.47.62-1.08zm-9.15 2.37v-8.1h-5.76l-.45 5.4q-.07.74-.46 1.07-.33.28-.9.28h-.17v1.35q.07.04.16.06l.18.02q.09.01.19.01.88 0 1.48-.41.2-.13.36-.3.69-.72.77-2.08l.28-3.87h2.7v6.57h1.62zm12.78-6.57h3.88V3.23h-5.5v8.1h1.62V4.76zm-5.14 1.47q.19.47.19 1.05 0 .58-.19 1.06-.19.47-.49.82-.2.23-.44.39-.14.09-.28.16-.33.14-.66.17-.09.01-.19.01-.09 0-.19-.01-.33-.03-.65-.17-.15-.07-.28-.16-.25-.16-.44-.39-.31-.35-.5-.82-.19-.48-.19-1.06 0-.57.19-1.04.19-.49.5-.84.2-.24.46-.4.12-.08.26-.14.33-.15.67-.18.09-.01.17-.01.09 0 .17.01.35.03.68.18.13.06.25.14.26.16.47.4.3.35.49.83zM1.7 9.72V6.11h2.97q.49 0 .86.21.2.11.37.29.11.12.2.25.28.43.28 1.05 0 .62-.27 1.05-.09.14-.21.26-.16.17-.35.28-.38.22-.88.22H1.7z" fill="#212121" fill-rule="evenodd"/></svg>

<svg width="32.941406" height="11.425781" viewBox="0 0 32.9414 11.4258" fill="none" xmlns="http://www.w3.org/2000/svg" xmlns:xlink="http://www.w3.org/1999/xlink">
	<desc>
			Created with Pixso.
	</desc>
	<defs/>
	<path id="Блог" d="M6.03 4.75Q5.41 4.5 4.67 4.5L1.7 4.5L1.7 1.61L7.28 1.61L7.28 0L0 0L0 11.33L4.67 11.33Q5.41 11.33 6.03 11.09Q6.56 10.87 6.96 10.52Q7.05 10.45 7.12 10.37Q7.31 10.19 7.45 9.99Q7.68 9.67 7.83 9.29Q8.09 8.65 8.09 7.91Q8.09 7.18 7.83 6.55Q7.66 6.09 7.36 5.73Q7.25 5.59 7.12 5.46Q7 5.33 6.86 5.22Q6.49 4.93 6.03 4.75ZM25.43 8.96Q25.73 8.2 25.73 7.28Q25.73 6.37 25.43 5.61Q25.19 4.98 24.77 4.49Q24.69 4.4 24.6 4.31Q24.35 4.05 24.06 3.84Q23.74 3.61 23.37 3.45Q23.24 3.39 23.1 3.34Q22.51 3.14 21.86 3.14Q21.21 3.14 20.63 3.34Q20.49 3.39 20.35 3.45Q20.02 3.59 19.72 3.79Q19.39 4.02 19.11 4.31Q19.08 4.34 19.05 4.37Q18.57 4.9 18.29 5.61Q18 6.37 18 7.28Q18 8.2 18.29 8.96Q18.56 9.65 19.02 10.17Q19.06 10.22 19.11 10.27Q19.36 10.53 19.66 10.73Q19.98 10.96 20.35 11.12Q20.46 11.17 20.56 11.21Q21.18 11.42 21.86 11.42Q22.55 11.42 23.16 11.21Q23.27 11.17 23.37 11.12Q23.78 10.94 24.13 10.69Q24.38 10.5 24.6 10.27Q24.71 10.16 24.81 10.04Q25.2 9.57 25.43 8.96ZM16.28 11.33L16.28 3.23L10.52 3.23L10.07 8.63Q10 9.37 9.61 9.7Q9.28 9.98 8.71 9.98L8.54 9.98L8.54 11.33Q8.61 11.37 8.7 11.39Q8.79 11.4 8.88 11.41Q8.97 11.42 9.07 11.42Q9.95 11.42 10.55 11.01Q10.75 10.88 10.91 10.71Q11.6 9.99 11.68 8.63L11.96 4.76L14.66 4.76L14.66 11.33L16.28 11.33ZM29.06 4.76L32.94 4.76L32.94 3.23L27.44 3.23L27.44 11.33L29.06 11.33L29.06 4.76ZM23.92 6.23Q24.11 6.7 24.11 7.28Q24.11 7.86 23.92 8.34Q23.73 8.81 23.43 9.16Q23.23 9.39 22.99 9.55Q22.85 9.64 22.71 9.71Q22.38 9.85 22.05 9.88Q21.96 9.89 21.86 9.89Q21.77 9.89 21.67 9.88Q21.34 9.85 21.02 9.71Q20.87 9.64 20.74 9.55Q20.49 9.39 20.3 9.16Q19.99 8.81 19.8 8.34Q19.61 7.86 19.61 7.28Q19.61 6.71 19.8 6.24Q19.99 5.75 20.3 5.4Q20.5 5.16 20.76 5Q20.88 4.92 21.02 4.86Q21.35 4.71 21.69 4.68Q21.78 4.67 21.86 4.67Q21.95 4.67 22.03 4.68Q22.38 4.71 22.71 4.86Q22.84 4.92 22.96 5Q23.22 5.16 23.43 5.4Q23.73 5.75 23.92 6.23ZM1.7 9.72L1.7 6.11L4.67 6.11Q5.16 6.11 5.53 6.32Q5.73 6.43 5.9 6.61Q6.01 6.73 6.1 6.86Q6.38 7.29 6.38 7.91Q6.38 8.53 6.11 8.96Q6.02 9.1 5.9 9.22Q5.74 9.39 5.55 9.5Q5.17 9.72 4.67 9.72L1.7 9.72Z" fill="#212121" fill-opacity="1.000000" fill-rule="evenodd"/>
</svg>
